polaris-icons/icons/new-icons/ExportMinor.svg

<svg width="20" height="20" viewBox="0 0 20 20" fill="none" xmlns="http://www.w3.org/2000/svg">
<path d="M10.75 12.75C10.75 13.1642 10.4142 13.5 10 13.5C9.58579 13.5 9.25 13.1642 9.25 12.75V6.06066L7.53033 7.78033C7.23744 8.07322 6.76256 8.07322 6.46967 7.78033C6.17678 7.48744 6.17678 7.01256 6.46967 6.71967L9.46967 3.71967C9.76256 3.42678 10.2374 3.42678 10.5303 3.71967L13.5303 6.71967C13.8232 7.01256 13.8232 7.48744 13.5303 7.78033C13.2374 8.07322 12.7626 8.07322 12.4697 7.78033L10.75 6.06066L10.75 12.75Z" fill="#4A4A4A"/>
<path d="M16.5 13.75C16.5 13.3358 16.1642 13 15.75 13C15.3358 13 15 13.3358 15 13.75V14.51C15 14.9242 14.6642 15.26 14.25 15.26L5.75 15.26C5.33579 15.26 5 14.9242 5 14.51L5 13.75C5 13.3358 4.66421 13 4.25 13C3.83579 13 3.5 13.3358 3.5 13.75V14.51C3.5 15.7526 4.50736 16.76 5.75 16.76L14.25 16.76C15.4926 16.76 16.5 15.7526 16.5 14.51V13.75Z" fill="#4A4A4A"/>
</svg>

<svg viewBox="0 0 20 20" xmlns="http://www.w3.org/2000/svg"><path d="M10.75 12.75a.75.75 0 0 1-1.5 0v-6.69l-1.72 1.72a.75.75 0 0 1-1.06-1.06l3-3a.75.75 0 0 1 1.06 0l3 3a.75.75 0 0 1-1.06 1.06l-1.72-1.72v6.69Z" fill="#5C5F62"/><path d="M16.5 13.75a.75.75 0 0 0-1.5 0v.76a.75.75 0 0 1-.75.75h-8.5a.75.75 0 0 1-.75-.75v-.76a.75.75 0 0 0-1.5 0v.76a2.25 2.25 0 0 0 2.25 2.25h8.5a2.25 2.25 0 0 0 2.25-2.25v-.76Z" fill="#5C5F62"/></svg>
